src/pos-icons/cow.svg

<svg height="24" viewBox="0 0 24 24" width="24" xmlns="http://www.w3.org/2000/svg"><path d="m10.5 18a.5.5 0 0 1 .5.5.5.5 0 0 1 -.5.5.5.5 0 0 1 -.5-.5.5.5 0 0 1 .5-.5m3 0a.5.5 0 0 1 .5.5.5.5 0 0 1 -.5.5.5.5 0 0 1 -.5-.5.5.5 0 0 1 .5-.5m-3.5-7a1 1 0 0 1 1 1 1 1 0 0 1 -1 1 1 1 0 0 1 -1-1 1 1 0 0 1 1-1m4 0a1 1 0 0 1 1 1 1 1 0 0 1 -1 1 1 1 0 0 1 -1-1 1 1 0 0 1 1-1m4 7c0 2.21-2.69 4-6 4s-6-1.79-6-4c0-.9.45-1.73 1.2-2.4-.75-1-1.2-2.25-1.2-3.6l.12-1.22c-.54.15-1.19.15-1.72 0-1.02-.28-2.56-1.43-2.33-2.23s2.14-.95 3.16-.65c.59.17 1.22.6 1.59 1.06l.57-.81c-.6-1.1-.39-4.15 2.61-5.15l-.09.14c-.28.44-1 1.83-.24 3.33.72-.3 1.5-.47 2.33-.47s1.61.17 2.33.47c.76-1.5.04-2.89-.24-3.33l-.09-.14c3 1 3.21 4.05 2.61 5.15l.57.81c.37-.46 1-.89 1.59-1.06 1.02-.3 2.93-.15 3.16.65s-1.31 1.95-2.33 2.23c-.53.15-1.18.15-1.72 0l.12 1.22c0 1.35-.45 2.6-1.2 3.6.75.67 1.2 1.5 1.2 2.4m-6-2c-2.21 0-4 .9-4 2s1.79 2 4 2 4-.9 4-2-1.79-2-4-2m0-2c1.12 0 2.17.21 3.07.56.58-.69.93-1.56.93-2.56a4 4 0 0 0 -4-4 4 4 0 0 0 -4 4c0 1 .35 1.87.93 2.56.9-.35 1.95-.56 3.07-.56"/></svg>

<?xml version="1.0" encoding="UTF-8"?><!DOCTYPE svg PUBLIC "-//W3C//DTD SVG 1.1//EN" "http://www.w3.org/Graphics/SVG/1.1/DTD/svg11.dtd"><svg xmlns="http://www.w3.org/2000/svg" xmlns:xlink="http://www.w3.org/1999/xlink" version="1.1" id="mdi-cow" width="24" height="24" viewBox="0 0 24 24"><path d="M10.5,18A0.5,0.5 0 0,1 11,18.5A0.5,0.5 0 0,1 10.5,19A0.5,0.5 0 0,1 10,18.5A0.5,0.5 0 0,1 10.5,18M13.5,18A0.5,0.5 0 0,1 14,18.5A0.5,0.5 0 0,1 13.5,19A0.5,0.5 0 0,1 13,18.5A0.5,0.5 0 0,1 13.5,18M10,11A1,1 0 0,1 11,12A1,1 0 0,1 10,13A1,1 0 0,1 9,12A1,1 0 0,1 10,11M14,11A1,1 0 0,1 15,12A1,1 0 0,1 14,13A1,1 0 0,1 13,12A1,1 0 0,1 14,11M18,18C18,20.21 15.31,22 12,22C8.69,22 6,20.21 6,18C6,17.1 6.45,16.27 7.2,15.6C6.45,14.6 6,13.35 6,12L6.12,10.78C5.58,10.93 4.93,10.93 4.4,10.78C3.38,10.5 1.84,9.35 2.07,8.55C2.3,7.75 4.21,7.6 5.23,7.9C5.82,8.07 6.45,8.5 6.82,8.96L7.39,8.15C6.79,7.05 7,4 10,3L9.91,3.14V3.14C9.63,3.58 8.91,4.97 9.67,6.47C10.39,6.17 11.17,6 12,6C12.83,6 13.61,6.17 14.33,6.47C15.09,4.97 14.37,3.58 14.09,3.14L14,3C17,4 17.21,7.05 16.61,8.15L17.18,8.96C17.55,8.5 18.18,8.07 18.77,7.9C19.79,7.6 21.7,7.75 21.93,8.55C22.16,9.35 20.62,10.5 19.6,10.78C19.07,10.93 18.42,10.93 17.88,10.78L18,12C18,13.35 17.55,14.6 16.8,15.6C17.55,16.27 18,17.1 18,18M12,16C9.79,16 8,16.9 8,18C8,19.1 9.79,20 12,20C14.21,20 16,19.1 16,18C16,16.9 14.21,16 12,16M12,14C13.12,14 14.17,14.21 15.07,14.56C15.65,13.87 16,13 16,12A4,4 0 0,0 12,8A4,4 0 0,0 8,12C8,13 8.35,13.87 8.93,14.56C9.83,14.21 10.88,14 12,14M14.09,3.14V3.14Z" /></svg>
